lib/svgs/new-schedule.svg

<?xml version="1.0" encoding="UTF-8" standalone="no"?>
<svg width="20px" height="20px" viewBox="0 0 20 20" version="1.1" xmlns="http://www.w3.org/2000/svg" xmlns:xlink="http://www.w3.org/1999/xlink">
    <defs></defs>
    <g id="Icons" stroke="none" stroke-width="1" fill="none" fill-rule="evenodd">
        <g id="Web" transform="translate(-289.000000, -1230.000000)" fill="#000000">
            <g id="date/new-schedule" transform="translate(289.000000, 1230.000000)">
                <path d="M15.698,5.8141 C15.698,4.7141 14.798,3.8141 13.698,3.8141 L12.505,3.8141 L12.505,3.0521 C12.505,2.7201 12.236,2.4521 11.904,2.4521 C11.573,2.4521 11.304,2.7201 11.304,3.0521 L11.304,3.8141 L6.394,3.8141 L6.394,3.0521 C6.394,2.7201 6.125,2.4521 5.794,2.4521 C5.462,2.4521 5.193,2.7201 5.193,3.0521 L5.193,3.8141 L4,3.8141 C2.9,3.8141 2,4.7141 2,5.8141 L2,15.5121 C2,16.6121 2.9,17.5121 4,17.5121 L10.955,17.5121 C11.285,17.5121 11.555,17.2421 11.555,16.9121 C11.555,16.5821 11.285,16.3121 10.955,16.3121 L4,16.3121 C3.566,16.3121 3.2,15.9461 3.2,15.5121 L3.2,8.4231 L14.498,8.4231 L14.497,10.1961 C14.497,10.5261 14.767,10.7961 15.097,10.7961 C15.427,10.7961 15.697,10.5261 15.697,10.1961 L15.698,5.8141 M3.2,7.2231 L3.2,5.8141 C3.2,5.3801 3.566,5.0141 4,5.0141 L5.193,5.0141 L5.193,5.3401 C5.193,5.6721 5.462,5.9401 5.794,5.9401 C6.125,5.9401 6.394,5.6721 6.394,5.3401 L6.394,5.0141 L11.304,5.0141 L11.304,5.3401 C11.304,5.6721 11.573,5.9401 11.904,5.9401 C12.236,5.9401 12.505,5.6721 12.505,5.3401 L12.505,5.0141 L13.698,5.0141 C14.132,5.0141 14.498,5.3801 14.498,5.8141 L14.498,7.2231 L3.2,7.2231 M17.3966,14.0801 L15.6966,14.0801 L15.6966,12.3801 C15.6966,12.0481 15.4276,11.7801 15.0966,11.7801 C14.7646,11.7801 14.4966,12.0481 14.4966,12.3801 L14.4966,14.0801 L12.7966,14.0801 C12.4646,14.0801 12.1966,14.3491 12.1966,14.6801 C12.1966,15.0111 12.4646,15.2791 12.7966,15.2791 L14.4966,15.2791 L14.4966,16.9791 C14.4966,17.3101 14.7646,17.5791 15.0966,17.5791 C15.4276,17.5791 15.6966,17.3101 15.6966,16.9791 L15.6966,15.2791 L17.3966,15.2791 C17.7286,15.2791 17.9966,15.0111 17.9966,14.6801 C17.9966,14.3491 17.7286,14.0801 17.3966,14.0801" id="Shape"></path>
            </g>
        </g>
    </g>
</svg>

<svg xmlns="http://www.w3.org/2000/svg" viewBox="0 0 20 20">
    <path fill="#000" fill-rule="evenodd" d="M15.698 5.814c0-1.1-.9-2-2-2h-1.193v-.762a.6.6 0 0 0-1.201 0v.762h-4.91v-.762a.6.6 0 1 0-1.201 0v.762H4c-1.1 0-2 .9-2 2v9.698c0 1.1.9 2 2 2h6.955c.33 0 .6-.27.6-.6 0-.33-.27-.6-.6-.6H4a.81.81 0 0 1-.8-.8V8.423h11.298l-.001 1.773c0 .33.27.6.6.6.33 0 .6-.27.6-.6l.001-4.382M3.2 7.224v-1.41c0-.434.366-.8.8-.8h1.193v.326a.6.6 0 0 0 1.201 0v-.326h4.91v.326a.6.6 0 1 0 1.201 0v-.326h1.193c.434 0 .8.366.8.8v1.41H3.2m14.197 6.856h-1.7v-1.7a.6.6 0 1 0-1.2 0v1.7h-1.7a.6.6 0 1 0 0 1.2h1.7v1.7a.6.6 0 1 0 1.2 0v-1.7h1.7a.599.599 0 1 0 0-1.2"/>
</svg>
